X:120
T:Believe Me If All Those Endearing Young Charms (in D)
T:My Lodging is on the Cold Ground
Z:Jack Campin, http://www.campin.me.uk/
N:originally Northumbrian
M:3/4
L:1/8
Q:1/4=150
K:D
FE|D3  E D2|D2 F2 A2|G2 B2 d2|d4 cB|A3 G F2|E2 D2 E2|F6-|F4
FE|D3  E D2|D2 F2 A2|G2 B2 d2|d4 cB|A3 d F2|E2 D2 E2|D6-|D4||
AG|F2 A2 d2|d4    A2|G2 B2 d2|d4 cB|A3 G F2|E2 D2 E2|F6-|F4
FE|D3  E D2|D2 F2 A2|G2 B2 d2|d4 cB|A3 d F2|E2 D2 E2|D6-|D4|]

